X: 123
T: Old Truagh
N:"Slow" "collected by J. O'Neill"
B:O'Neill's 123
Z:Transcribed by henrik.norbeck@mailbox.swipnet.se
M:3/4
L:1/8
K:G
(Bd)|e2 (efgf)|e2 (d<B) (gf)|e2 (d<B) AG|E4 (EG)|
A2 (AB) de|G2 (GB) AG|E2 DE GA|G4||
G>A|B2 .B(ded)|(cB) (AG) B>A|G2 (FA GF)|E4 (GA)|
B2 (Bdge)|(dB) GA BG)|E2 DE GA|G4||


